X: 100355
P: AERIAL QUADRILLE part 2.
C: J. Scott, Sandyholm, Lockerbie
B: K\"ohler's Violin Repository, v.3, 1885 p.241 #2
Z: 2012 John Chambers <jc:trillian.mit.edu>
N: The repeated "D.C." may mean to play it ABACA.
M: 2/4
L: 1/8
K: Bb
[|\
FB/A/ Bc | d^c d2 | FB/A/ Bd | f=e f2 |\
a2g/f/ gf | f2e/d/ ed | dc/B/ FA | Bz vb ||
uF |\
dedc | Bdf2 | (gf)Af | d3F |\
dedc | Bdf2 | (gf)ec | B3B |
ccd=e | fgab | agga | gf c(A/B/) |\
AA =B/c/d/=e/ | fgad' | c'bde | [f3A3] "^D.C."z |]

%%sep 2 1 500

